X: 153
M: C|
L: 1/8
K: D
|:\
|:\
|:\
f/g/a a>b a>baf | g/g/g g2 g>aba |\
f/g/a a>b a>baf | gafg Te2d2 :|

